icons/breezeLight/actions/24/document-save.svg

<svg viewBox="0 0 24 24" xmlns="http://www.w3.org/2000/svg"><path d="m3 2.9980469v.0019531 1 15h1 15v-1-11-.6992188h-.007812l.007812-.0097656-3.292969-3.2929687-.007812.0097656v-.0097656h-.699219zm1 1.0019531h3v4 1h8v-1-4h.292969l2.707031 2.7070312v.2929688 11h-2v-7h-1-8-1v7h-2zm4 0h3.900391v4h-3.900391zm-1 8h8v6h-8z" fill="#4d4d4d" transform="translate(1 1)"/></svg>

<svg xmlns="http://www.w3.org/2000/svg" viewBox="0 0 24 24">
  <defs id="defs3051">
    <style type="text/css" id="current-color-scheme">
      .ColorScheme-Text {
        color:#4d4d4d;
      }
      </style>
  </defs>
 <path 
    style="fill:currentColor;fill-opacity:1;stroke:none" 
    d="M 3 2.9980469 L 3 3 L 3 4 L 3 19 L 4 19 L 19 19 L 19 18 L 19 7 L 19 6.3007812 L 18.992188 6.3007812 L 19 6.2910156 L 15.707031 2.9980469 L 15.699219 3.0078125 L 15.699219 2.9980469 L 15 2.9980469 L 3 2.9980469 z M 4 4 L 7 4 L 7 8 L 7 9 L 15 9 L 15 8 L 15 4 L 15.292969 4 L 18 6.7070312 L 18 7 L 18 18 L 16 18 L 16 11 L 15 11 L 7 11 L 6 11 L 6 18 L 4 18 L 4 4 z M 8 4 L 11.900391 4 L 11.900391 8 L 8 8 L 8 4 z M 7 12 L 15 12 L 15 18 L 7 18 L 7 12 z "
    class="ColorScheme-Text"
     transform="translate(1,1)"
    />  
</svg>
